lib/flags/ai-anguilla.svg

<svg xmlns="http://www.w3.org/2000/svg" fill="none" aria-hidden="true" viewBox="0 0 42 30"><g id="Country=AI - Anguilla, Size=sm (36x24)" filter="url(#filter0_dd_91_29885)"><g clip-path="url(#clip0_91_29885)"><g id="flag"><mask id="mask0_91_29885" width="36" height="24" x="3" y="2" maskUnits="userSpaceOnUse" style="mask-type:alpha"><rect id="mask" width="36" height="24" x="3" y="2" fill="white"/></mask><g mask="url(#mask0_91_29885)"><g id="contents"><path id="background" fill="#2E42A5" fill-rule="evenodd" d="M3 2V26H39V2H3Z" clip-rule="evenodd"/><mask id="mask1_91_29885" width="36" height="24" x="3" y="2" maskUnits="userSpaceOnUse" style="mask-type:alpha"><path id="background_2" fill="white" fill-rule="evenodd" d="M3 2V26H39V2H3Z" clip-rule="evenodd"/></mask><g mask="url(#mask1_91_29885)"><g id="mark"><path id="Path" fill="#FBE625" fill-rule="evenodd" d="M26.561 13.8562L26.5646 14.2066C26.5949 17.1566 26.7173 19.0865 26.9352 20.011C27.1161 20.7787 27.7736 22.0518 28.5469 23.0726C29.5192 24.3561 30.5565 25.1368 31.5493 25.1368C32.5457 25.1368 33.5839 24.4108 34.552 23.2011C35.3466 22.2082 36.0271 20.9486 36.2981 20.0204C36.6335 18.8714 36.7897 16.9356 36.7708 14.2035L36.7684 13.8556L36.4107 14.0202C35.6899 14.3518 34.9139 14.5174 34.0791 14.5174C33.2539 14.5174 32.4575 14.2982 31.685 13.8563L31.5526 13.7805L31.4182 13.8537C30.603 14.2979 29.8371 14.5174 29.1191 14.5174C28.392 14.5174 27.6607 14.3521 26.9229 14.0194L26.561 13.8562ZM27.1747 19.9695C26.961 19.0627 26.8391 17.1411 26.809 14.2048C27.5808 14.5529 28.3509 14.7269 29.119 14.7269C29.8872 14.7269 30.6973 14.4948 31.5493 14.0306C32.3608 14.4948 33.204 14.7269 34.079 14.7269C34.954 14.7269 35.7697 14.5529 36.5263 14.2048C36.5451 16.9205 36.39 18.842 36.0609 19.9695C35.5672 21.6607 33.4969 24.9273 31.5493 24.9273C29.6016 24.9273 27.4953 21.3297 27.1747 19.9695Z" clip-rule="evenodd"/><g id="Group"><path id="Path_2" fill="#F5FBFF" fill-rule="evenodd" d="M26.8091 14.2047C26.8091 14.2047 26.8543 18.6092 27.1748 19.9694C27.4954 21.3297 29.6017 24.9272 31.5494 24.9272C33.497 24.9272 35.5673 21.6606 36.061 19.9694C36.5546 18.2783 36.5263 14.2047 36.5263 14.2047C36.5263 14.2047 35.3916 14.7269 34.0791 14.7269C32.7666 14.7269 31.5494 14.0305 31.5494 14.0305C31.5494 14.0305 30.2714 14.7269 29.1191 14.7269C27.9668 14.7269 26.8091 14.2047 26.8091 14.2047Z" clip-rule="evenodd"/><mask id="mask2_91_29885" width="11" height="11" x="26" y="14" maskUnits="userSpaceOnUse" style="mask-type:alpha"><path id="Path_3" fill="white" fill-rule="evenodd" d="M26.8091 14.2047C26.8091 14.2047 26.8543 18.6092 27.1748 19.9694C27.4954 21.3297 29.6017 24.9272 31.5494 24.9272C33.497 24.9272 35.5673 21.6606 36.061 19.9694C36.5546 18.2783 36.5263 14.2047 36.5263 14.2047C36.5263 14.2047 35.3916 14.7269 34.0791 14.7269C32.7666 14.7269 31.5494 14.0305 31.5494 14.0305C31.5494 14.0305 30.2714 14.7269 29.1191 14.7269C27.9668 14.7269 26.8091 14.2047 26.8091 14.2047Z" clip-rule="evenodd"/></mask><g mask="url(#mask2_91_29885)"><path id="Combined Shape" fill="#FF9800" fill-rule="evenodd" d="M30.7203 17.488C30.7203 17.7757 30.2579 18.6132 29.9899 18.8275C29.7916 18.9861 29.8529 18.6176 29.8981 18.3456C29.914 18.2502 29.9279 18.1666 29.9279 18.1219L29.9279 18.1022C29.9279 18.0463 29.928 18.0156 29.9218 17.9862C29.9143 17.9502 29.8975 17.9163 29.8602 17.8409L29.8602 17.8409C29.8464 17.8128 29.8297 17.7791 29.8096 17.7373C29.3804 16.9235 29.684 16.5337 29.8189 16.3606C29.8396 16.3342 29.8563 16.3127 29.8658 16.2956C29.8861 16.259 29.9245 16.2262 29.9673 16.1895C30.075 16.0971 30.2109 15.9806 30.1597 15.7193C30.088 15.3541 30.5224 14.8857 30.5224 14.8857C30.5224 14.8857 30.417 15.7941 30.9162 15.5716C31.2407 15.4269 31.8287 15.6345 32.3517 15.8191C32.6334 15.9185 32.8962 16.0112 33.0888 16.0387C33.4779 16.0943 33.691 15.9491 33.8229 15.8592C33.8775 15.8219 33.9183 15.7941 33.9518 15.7941C34.0662 15.7941 34.2011 15.8145 34.2011 15.8888C34.2011 15.963 33.6888 16.1803 33.4312 16.2481C33.2371 16.2992 33.4363 16.44 33.6031 16.5579C33.6577 16.5965 33.7088 16.6326 33.7416 16.6623C33.8746 16.7831 33.9965 17.4414 33.6888 17.0272C33.381 16.6131 32.726 16.3362 32.1692 16.2956C31.6125 16.2551 30.9104 16.6307 30.8261 17.0272C30.7418 17.4238 31.4847 17.3511 31.4847 17.3511C31.4847 17.3511 31.4305 17.4129 31.1909 17.488C30.9513 17.5632 30.7203 17.488 30.7203 17.488ZM30.1601 17.4569C30.1601 17.5148 30.1054 17.5617 30.0379 17.5617C29.9704 17.5617 29.9156 17.5148 29.9156 17.4569C29.9156 17.3991 29.9704 17.3522 30.0379 17.3522C30.1054 17.3522 30.1601 17.3991 30.1601 17.4569ZM32.9052 19.4009C32.5645 19.2965 31.5163 19.343 31.2332 19.4825C31.2332 19.4825 31.1951 19.2664 31.005 19.1166C30.8149 18.9667 30.7278 18.9545 30.7278 18.9545C30.7278 18.9545 31.1595 19.4969 30.7285 19.6236C30.2974 19.7503 29.5875 19.3866 29.3575 18.9341C29.1275 18.4816 29.0823 17.8381 29.3406 17.398C29.5989 16.958 29.0103 17.3719 28.956 17.5339C28.9426 17.5738 28.9318 17.631 28.9203 17.6921C28.8852 17.8791 28.8432 18.1022 28.6989 17.976C28.5073 17.8086 28.0451 17.5157 27.972 17.5517C27.899 17.5876 27.9444 17.7024 27.9998 17.7914C28.0161 17.8174 28.0631 17.8356 28.1263 17.8601C28.2787 17.919 28.5249 18.0143 28.6589 18.3437C28.7252 18.5068 28.7613 18.7561 28.8 19.0232C28.872 19.5193 28.9529 20.0771 29.2525 20.2592C29.7135 20.5394 28.7686 20.8979 28.7686 20.8979C28.7686 20.8979 29.4401 21.0085 29.7646 20.7758C29.9969 20.6093 30.1775 20.6585 30.3205 20.6974C30.3774 20.7129 30.4283 20.7268 30.4742 20.7249C30.4956 20.724 30.5248 20.7266 30.5609 20.7298C30.7966 20.7507 31.3273 20.7979 31.92 20.0696C31.9513 20.0338 31.9765 20.0044 31.9973 19.98C32.0519 19.9164 32.0773 19.8867 32.1077 19.8637C32.1343 19.8437 32.1647 19.8287 32.2217 19.8007L32.2217 19.8007L32.241 19.7912C32.285 19.7696 32.374 19.7398 32.4756 19.7059C32.7651 19.6092 33.1574 19.4781 32.9052 19.4009ZM31.4953 19.8814C31.5522 19.8534 31.6249 19.8732 31.6576 19.9257C31.6903 19.9781 31.6707 20.0434 31.6138 20.0715C31.5568 20.0995 31.4842 20.0797 31.4514 20.0272C31.4187 19.9748 31.4383 19.9095 31.4953 19.8814ZM32.0725 16.8741C32.1596 17.1849 32.7743 17.941 33.0601 18.0761C33.0601 18.0761 32.877 18.2222 32.8392 18.4455C32.8013 18.6688 32.8373 18.7404 32.8373 18.7404C32.8373 18.7404 33.1138 18.1232 33.4681 18.3755C33.8224 18.6278 33.866 19.3552 33.5643 19.7731C33.2626 20.191 32.68 20.5751 32.1242 20.6222C31.5684 20.6693 32.2795 20.8827 32.4619 20.835C32.5068 20.8233 32.5667 20.8001 32.6306 20.7754C32.8261 20.6998 33.0595 20.6095 33.0191 20.7859C32.9655 21.0198 32.9408 21.524 33.0145 21.5588C33.0883 21.5937 33.1719 21.4973 33.2256 21.4076C33.2413 21.3812 33.2329 21.3363 33.2215 21.2758C33.1941 21.1301 33.1499 20.8947 33.3878 20.6154C33.5055 20.4772 33.721 20.3145 33.952 20.1401L33.952 20.1401C34.3809 19.8163 34.8631 19.4522 34.8717 19.1296C34.885 18.6333 35.7379 19.1425 35.7379 19.1425C35.7379 19.1425 35.4766 18.5817 35.0802 18.4665C34.7966 18.384 34.7447 18.2226 34.7035 18.0947C34.6872 18.0439 34.6725 17.9984 34.6457 17.9652C34.6332 17.9498 34.6197 17.9266 34.6031 17.898L34.6031 17.898C34.4945 17.7108 34.2499 17.2895 33.24 17.2443C33.1891 17.2405 33.1477 17.2377 33.1134 17.2354C33.0208 17.2293 32.9792 17.2265 32.9399 17.2155C32.9079 17.2065 32.8774 17.1921 32.822 17.1658C32.8159 17.1629 32.8094 17.1598 32.8025 17.1566C32.7581 17.1356 32.6816 17.0855 32.5942 17.0282L32.5942 17.0282C32.3453 16.865 32.008 16.644 32.0725 16.8741ZM33.3326 17.7032C33.2751 17.676 33.2542 17.611 33.2859 17.558C33.3176 17.5051 33.3899 17.4841 33.4473 17.5113C33.5048 17.5385 33.5257 17.6034 33.494 17.6564C33.4623 17.7094 33.3901 17.7303 33.3326 17.7032Z" clip-rule="evenodd"/><path id="Rectangle" fill="#36C6FF" fill-rule="evenodd" d="M27.1045 21.7524H35.2934V25.2096H27.1045V21.7524Z" clip-rule="evenodd"/></g></g></g><g id="gb - large"><g id="flag_2"><rect id="mask_2" width="20.25" height="14" x="3" y="2" fill="#2B409A"/><mask id="mask3_91_29885" width="21" height="14" x="3" y="2" maskUnits="userSpaceOnUse" style="mask-type:alpha"><rect id="mask_3" width="20.25" height="14" x="3" y="2" fill="white"/></mask><g mask="url(#mask3_91_29885)"><g id="contents_2"><g id="stripe"><path id="white" fill="#F7FCFF" d="M0.745117 14.9999L5.20119 16.7371L23.351 3.88878L25.7015 1.30725L20.9364 0.726627L13.5335 6.26332L7.57493 9.99375L0.745117 14.9999Z"/><path id="red" fill="#F50100" d="M1.35498 16.217L3.62514 17.2251L24.8573 1.06738H21.6697L1.35498 16.217Z"/></g><g id="stripe_2"><path id="white_2" fill="#F7FCFF" d="M25.5049 14.9999L21.0488 16.7371L2.89897 3.88878L0.548492 1.30725L5.31362 0.726627L12.7165 6.26332L18.6751 9.99375L25.5049 14.9999Z"/><path id="red_2" fill="#F50100" d="M25.353 15.8732L23.0829 16.8813L14.042 9.96339L11.3616 9.19046L0.322518 1.31593H3.51009L14.5429 9.00356L17.4735 9.93038L25.353 15.8732Z"/></g><g id="cross"><g id="red_3"><mask id="path-16-outside-1_91_29885" width="24" height="18" x="1" y="0" fill="black" maskUnits="userSpaceOnUse"><rect width="24" height="18" x="1" fill="white"/><path fill-rule="evenodd" d="M14.2326 2H11.9826V8H3V10H11.9826V16H14.2326V10H23.25V8H14.2326V2Z" clip-rule="evenodd"/></mask><path fill="#F50100" fill-rule="evenodd" d="M14.2326 2H11.9826V8H3V10H11.9826V16H14.2326V10H23.25V8H14.2326V2Z" clip-rule="evenodd"/><path fill="#F7FCFF" d="M11.9826 2V0.5H10.4826V2H11.9826ZM14.2326 2H15.7326V0.5H14.2326V2ZM11.9826 8V9.5H13.4826V8H11.9826ZM3 8V6.5H1.5V8H3ZM3 10H1.5V11.5H3V10ZM11.9826 10H13.4826V8.5H11.9826V10ZM11.9826 16H10.4826V17.5H11.9826V16ZM14.2326 16V17.5H15.7326V16H14.2326ZM14.2326 10V8.5H12.7326V10H14.2326ZM23.25 10V11.5H24.75V10H23.25ZM23.25 8H24.75V6.5H23.25V8ZM14.2326 8H12.7326V9.5H14.2326V8ZM11.9826 3.5H14.2326V0.5H11.9826V3.5ZM13.4826 8V2H10.4826V8H13.4826ZM3 9.5H11.9826V6.5H3V9.5ZM4.5 10V8H1.5V10H4.5ZM11.9826 8.5H3V11.5H11.9826V8.5ZM13.4826 16V10H10.4826V16H13.4826ZM14.2326 14.5H11.9826V17.5H14.2326V14.5ZM12.7326 10V16H15.7326V10H12.7326ZM23.25 8.5H14.2326V11.5H23.25V8.5ZM21.75 8V10H24.75V8H21.75ZM14.2326 9.5H23.25V6.5H14.2326V9.5ZM12.7326 2V8H15.7326V2H12.7326Z" mask="url(#path-16-outside-1_91_29885)"/></g></g></g></g></g></g></g></g></g></g></g></g><defs><filter id="filter0_dd_91_29885" width="42" height="30" x="0" y="0" color-interpolation-filters="sRGB" filterUnits="userSpaceOnUse"><feFlood flood-opacity="0" result="BackgroundImageFix"/><feColorMatrix in="SourceAlpha" result="hardAlpha" values="0 0 0 0 0 0 0 0 0 0 0 0 0 0 0 0 0 0 127 0"/><feOffset dy="1"/><feGaussianBlur stdDeviation="1"/><feColorMatrix values="0 0 0 0 0.0627451 0 0 0 0 0.0941176 0 0 0 0 0.156863 0 0 0 0.06 0"/><feBlend in2="BackgroundImageFix" result="effect1_dropShadow_91_29885"/><feColorMatrix in="SourceAlpha" result="hardAlpha" values="0 0 0 0 0 0 0 0 0 0 0 0 0 0 0 0 0 0 127 0"/><feOffset dy="1"/><feGaussianBlur stdDeviation="1.5"/><feColorMatrix values="0 0 0 0 0.0627451 0 0 0 0 0.0941176 0 0 0 0 0.156863 0 0 0 0.1 0"/><feBlend in2="effect1_dropShadow_91_29885" result="effect2_dropShadow_91_29885"/><feBlend in="SourceGraphic" in2="effect2_dropShadow_91_29885" result="shape"/></filter><clipPath id="clip0_91_29885"><rect width="36" height="24" x="3" y="2" fill="white" rx="2"/></clipPath></defs></svg>

<svg xmlns="http://www.w3.org/2000/svg" fill="none" aria-hidden="true" viewBox="0 0 42 30"><g filter="url(#a)"><g clip-path="url(#b)"><mask id="c" width="36" height="24" x="3" y="2" maskUnits="userSpaceOnUse" style="mask-type:alpha"><path fill="#fff" d="M3 2h36v24H3z"/></mask><g mask="url(#c)"><path fill="#2E42A5" fill-rule="evenodd" d="M3 2v24h36V2H3Z" clip-rule="evenodd"/><mask id="d" width="36" height="24" x="3" y="2" maskUnits="userSpaceOnUse" style="mask-type:alpha"><path fill="#fff" fill-rule="evenodd" d="M3 2v24h36V2H3Z" clip-rule="evenodd"/></mask><g mask="url(#d)"><path fill="#FBE625" fill-rule="evenodd" d="m26.561 13.856.004.35c.03 2.95.152 4.88.37 5.805.181.768.839 2.04 1.612 3.062.972 1.283 2.01 2.064 3.002 2.064.997 0 2.035-.726 3.003-1.936.795-.993 1.475-2.252 1.746-3.18.335-1.15.492-3.085.473-5.818l-.003-.347-.357.164a5.507 5.507 0 0 1-2.332.497c-.825 0-1.621-.219-2.394-.66l-.132-.076-.135.073c-.815.444-1.58.663-2.299.663-.727 0-1.458-.165-2.196-.498l-.362-.163Zm.614 6.114c-.214-.907-.336-2.829-.366-5.765.772.348 1.542.522 2.31.522s1.578-.232 2.43-.696c.812.464 1.655.696 2.53.696.875 0 1.69-.174 2.447-.522.02 2.716-.136 4.637-.465 5.764-.494 1.692-2.564 4.958-4.512 4.958-1.947 0-4.054-3.597-4.374-4.957Z" clip-rule="evenodd"/><path fill="#F5FBFF" fill-rule="evenodd" d="M26.81 14.205s.044 4.404.365 5.764c.32 1.36 2.427 4.958 4.374 4.958 1.948 0 4.018-3.266 4.512-4.958.494-1.69.465-5.764.465-5.764s-1.134.522-2.447.522c-1.312 0-2.53-.697-2.53-.697s-1.278.697-2.43.697c-1.152 0-2.31-.522-2.31-.522Z" clip-rule="evenodd"/><mask id="e" width="11" height="11" x="26" y="14" maskUnits="userSpaceOnUse" style="mask-type:alpha"><path fill="#fff" fill-rule="evenodd" d="M26.81 14.205s.044 4.404.365 5.764c.32 1.36 2.427 4.958 4.374 4.958 1.948 0 4.018-3.266 4.512-4.958.494-1.69.465-5.764.465-5.764s-1.134.522-2.447.522c-1.312 0-2.53-.697-2.53-.697s-1.278.697-2.43.697c-1.152 0-2.31-.522-2.31-.522Z" clip-rule="evenodd"/></mask><g fill-rule="evenodd" clip-rule="evenodd" mask="url(#e)"><path fill="#FF9800" d="M30.72 17.488c0 .288-.462 1.125-.73 1.34-.198.158-.137-.21-.092-.482.016-.096.03-.18.03-.224v-.02c0-.056 0-.086-.006-.116a.644.644 0 0 0-.062-.145l-.05-.104c-.43-.813-.126-1.203.009-1.376a.579.579 0 0 0 .047-.065.432.432 0 0 1 .101-.107c.108-.092.244-.208.193-.47-.072-.365.362-.833.362-.833s-.105.908.394.686c.325-.145.913.063 1.436.247.281.1.544.192.737.22a.94.94 0 0 0 .734-.18c.054-.037.095-.065.129-.065.114 0 .25.02.25.095 0 .074-.513.291-.77.36-.195.05.004.191.171.309.055.038.106.075.139.104.133.121.255.78-.053.365-.308-.414-.963-.69-1.52-.731-.556-.04-1.259.335-1.343.731-.084.397.659.324.659.324s-.055.062-.294.137c-.24.075-.47 0-.47 0Zm-.56-.031c0 .058-.055.105-.122.105-.068 0-.122-.047-.122-.105 0-.058.054-.105.122-.105.067 0 .122.047.122.105Zm2.745 1.944c-.34-.104-1.389-.058-1.672.082 0 0-.038-.217-.228-.366-.19-.15-.277-.163-.277-.163s.431.543 0 .67c-.43.126-1.14-.237-1.37-.69-.23-.452-.276-1.096-.017-1.536.258-.44-.33-.026-.385.136-.013.04-.024.097-.036.158-.035.187-.077.41-.221.284-.192-.167-.654-.46-.727-.424-.073.036-.028.15.028.24.016.025.063.044.126.068.153.059.399.154.533.484.066.163.102.412.141.68.072.495.153 1.053.453 1.235.46.28-.484.639-.484.639s.671.11.996-.122c.232-.167.412-.117.555-.079a.52.52 0 0 0 .154.028c.022-.001.05.002.087.005.236.02.766.068 1.359-.66l.077-.09a.807.807 0 0 1 .11-.116.713.713 0 0 1 .115-.063l.019-.01a2.48 2.48 0 0 1 .235-.085c.29-.097.681-.228.43-.305Zm-1.41.48a.128.128 0 0 1 .163.045.1.1 0 0 1-.044.146.128.128 0 0 1-.163-.045.1.1 0 0 1 .044-.146Zm.577-3.007c.088.31.702 1.067.988 1.202 0 0-.183.146-.22.37-.039.223-.003.294-.003.294s.277-.617.631-.364c.354.252.398.98.096 1.397-.301.418-.884.802-1.44.85-.556.046.155.26.338.212.045-.012.105-.035.169-.06.195-.075.428-.165.388.01-.053.235-.078.739-.005.774.074.035.158-.062.212-.151.015-.027.007-.072-.005-.132a.703.703 0 0 1 .167-.66c.117-.139.333-.302.564-.476.429-.324.911-.688.92-1.01.013-.497.866.012.866.012s-.261-.56-.658-.675c-.283-.083-.335-.244-.377-.372a.402.402 0 0 0-.057-.13.577.577 0 0 1-.043-.067c-.108-.187-.353-.608-1.363-.654l-.127-.009a.884.884 0 0 1-.173-.02.776.776 0 0 1-.118-.05l-.02-.008a2.326 2.326 0 0 1-.208-.129c-.249-.163-.586-.384-.522-.154Zm1.26.83a.1.1 0 0 1-.046-.146.128.128 0 0 1 .161-.047.1.1 0 0 1 .047.145.128.128 0 0 1-.161.047Z"/><path fill="#36C6FF" d="M27.105 21.752h8.188v3.458h-8.188v-3.458Z"/></g><path fill="#2B409A" d="M3 2h20.25v14H3z"/><mask id="f" width="21" height="14" x="3" y="2" maskUnits="userSpaceOnUse" style="mask-type:alpha"><path fill="#fff" d="M3 2h20.25v14H3z"/></mask><g mask="url(#f)"><path fill="#F7FCFF" d="m.745 15 4.456 1.737L23.351 3.89l2.35-2.582-4.765-.58-7.402 5.536-5.96 3.73L.746 15Z"/><path fill="#F50100" d="m1.355 16.217 2.27 1.008L24.857 1.067H21.67L1.355 16.217Z"/><path fill="#F7FCFF" d="m25.505 15-4.456 1.737L2.899 3.89.549 1.307l4.765-.58 7.402 5.536 5.96 3.73L25.504 15Z"/><path fill="#F50100" d="m25.353 15.873-2.27 1.008-9.041-6.918-2.68-.773L.322 1.316H3.51l11.033 7.688 2.93.926 7.88 5.943Z"/><mask id="g" width="24" height="18" x="1" y="0" fill="#000" maskUnits="userSpaceOnUse"><path fill="#fff" d="M1 0h24v18H1z"/><path fill-rule="evenodd" d="M14.233 2h-2.25v6H3v2h8.983v6h2.25v-6h9.017V8h-9.017V2Z" clip-rule="evenodd"/></mask><path fill="#F50100" fill-rule="evenodd" d="M14.233 2h-2.25v6H3v2h8.983v6h2.25v-6h9.017V8h-9.017V2Z" clip-rule="evenodd"/><path fill="#F7FCFF" d="M11.983 2V.5h-1.5V2h1.5Zm2.25 0h1.5V.5h-1.5V2Zm-2.25 6v1.5h1.5V8h-1.5ZM3 8V6.5H1.5V8H3Zm0 2H1.5v1.5H3V10Zm8.983 0h1.5V8.5h-1.5V10Zm0 6h-1.5v1.5h1.5V16Zm2.25 0v1.5h1.5V16h-1.5Zm0-6V8.5h-1.5V10h1.5Zm9.017 0v1.5h1.5V10h-1.5Zm0-2h1.5V6.5h-1.5V8Zm-9.017 0h-1.5v1.5h1.5V8Zm-2.25-4.5h2.25v-3h-2.25v3Zm1.5 4.5V2h-3v6h3ZM3 9.5h8.983v-3H3v3Zm1.5.5V8h-3v2h3Zm7.483-1.5H3v3h8.983v-3Zm1.5 7.5v-6h-3v6h3Zm.75-1.5h-2.25v3h2.25v-3Zm-1.5-4.5v6h3v-6h-3ZM23.25 8.5h-9.017v3h9.017v-3Zm-1.5-.5v2h3V8h-3Zm-7.517 1.5h9.017v-3h-9.017v3Zm-1.5-7.5v6h3V2h-3Z" mask="url(#g)"/></g></g></g></g></g><defs><clipPath id="b"><rect width="36" height="24" x="3" y="2" fill="#fff" rx="2"/></clipPath><filter id="a" width="42" height="30" x="0" y="0" color-interpolation-filters="sRGB" filterUnits="userSpaceOnUse"><feFlood flood-opacity="0" result="BackgroundImageFix"/><feColorMatrix in="SourceAlpha" result="hardAlpha" values="0 0 0 0 0 0 0 0 0 0 0 0 0 0 0 0 0 0 127 0"/><feOffset dy="1"/><feGaussianBlur stdDeviation="1"/><feColorMatrix values="0 0 0 0 0.0627451 0 0 0 0 0.0941176 0 0 0 0 0.156863 0 0 0 0.06 0"/><feBlend in2="BackgroundImageFix" result="effect1_dropShadow_91_29885"/><feColorMatrix in="SourceAlpha" result="hardAlpha" values="0 0 0 0 0 0 0 0 0 0 0 0 0 0 0 0 0 0 127 0"/><feOffset dy="1"/><feGaussianBlur stdDeviation="1.5"/><feColorMatrix values="0 0 0 0 0.0627451 0 0 0 0 0.0941176 0 0 0 0 0.156863 0 0 0 0.1 0"/><feBlend in2="effect1_dropShadow_91_29885" result="effect2_dropShadow_91_29885"/><feBlend in="SourceGraphic" in2="effect2_dropShadow_91_29885" result="shape"/></filter></defs></svg>
